!!!!SEGMENT: s-uu--vok-mus-i-hs-22-5_forster-kaspar--in-tribulationibus.krn
!!!cenid: 16xx:1689
!!!COM: Förster, Kaspar
!!!COM-rismID: pe30006147
!!!CDT: ~1616-1673/02/02
!!!CNT: German
!!!OTL: In tribulationibus
!!!PDT: 1690
!!!AGN:
!!!SMS-siglum: S-Uu
!!!SMS-shelfmark: Vok. mus. i hs. 22:5
!!!SMS-shelfwork: W
!!!SMS-variant:
!!!SMS-altvar:
!!!NIFC-rismSourceID: 190008718
!!!NIFC-rismChildID: 190008718
!!!NIFC-islandoraID: none
!!!URL-pdf-islandora:
!!!URL-scan: https://www2.musik.uu.se/duben/presentationSource1.php?Select_Dnr=832 @EN{Scan on Academica} @PL{Skany w zewnętrznej bibliotece cyfrowej}
!!!ONB-nifc: UWAGA: poszczególne partie dostępne po kliknięciu w „browse part”. Informacje nt stron tytułowych w opisie na stronie lub na RISM.
!!!OMD:
!!!AIN: 1 alto 1 bass 1 organ 1 soprn 1 tenor
!!!key: d
**kern	**fba	**kern	**text	**kern	**text	**kern	**text	**kern	**text
*part5	*part5	*part4	*part4	*part3	*part3	*part2	*part2	*part1	*part1
*staff5	*staff5	*staff4	*staff4	*staff3	*staff3	*staff2	*staff2	*staff1	*staff1
*I"Baſſo pro Organo	*	*I"Baſſo	*	*I"Tenore	*	*I"ALTO	*	*I"Canto.	*
*I'bc	*	*I'B	*	*I'T	*	*I'A	*	*I'S	*
*Iorgan	*	*Ibass	*	*Itenor	*	*Ialto	*	*Isoprn	*
*ICklav	*	*ICvox	*	*ICvox	*	*ICvox	*	*ICvox	*
*clefF4	*	*clefF4	*	*clefC4	*	*clefC3	*	*clefC1	*
*k[b-]	*	*k[b-]	*	*k[b-]	*	*k[b-]	*	*k[b-]	*
*d:	*	*d:	*	*d:	*	*d:	*	*d:	*
*M2/1	*	*M2/1	*	*M2/1	*	*M2/1	*	*M2/1	*
*met(C)	*	*met(C)	*	*met(C)	*	*met(C)	*	*met(C)	*
=1-	=1-	=1-	=1-	=1-	=1-	=1-	=1-	=1-	=1-
!!LO:TX:t=P:problem:brak i dodanie pauz 2r na przestrzeni t.26-35 stworzone na etapie dopasowania głosów w xmlu.
!!LO:TX:t=P:problem:duże niezgodności harmoniczne w niektórych fragmentach 
!LO:TX:b:t=In tribulationis	!	!	!	!	!	!	!	!	!
[>1D	#	0r	.	0r	.	4r	.	4r	.
.	.	.	.	.	.	4f#X\	In	4a\	In
.	.	.	.	.	.	4.f#X\	tri-	4.a\	tri-
!	!	!	!	!	!	!	!	!LO:TX:t=P:problem:kreska pseudotaktowa	!
.	.	.	.	.	.	8f#\	-bu-	8a\	-bu-
2D]	.	.	.	.	.	4.f#\	-la-	4.a\	-la-
.	.	.	.	.	.	8f#\	-ti-	8a\	-ti-
!LO:TX:t=P:problem:kreska pseudotaktowa	!	!	!	!	!	!	!	!LO:TX:t=P:problem:kreska pseudotaktowa	!
2E-X\	- 6	.	.	.	.	[>2g\	-o-	(2cc\	-o-
=2-	=2-	=2-	=2-	=2-	=2-	=2-	=2-	=2-	=2-
!LO:N:acc=#	!	!	!	!	!	!	!	!LO:N:acc=#	!
2En\	6 43	2r	.	2r	.	4.g\]	.	4.bn\)	.
.	.	.	.	.	.	8f#X\	-ni-	8dd\	-ni-
!LO:TX:t=P:problem:kreska pseudotaktowa	!	!	!	!	!	!	!	!LO:TX:t=P:problem:kreska pseudotaktowa	!
2D\	#	4r	.	4r	.	2f#\	-b(us)	2dd\	-bus
!	!	!	!	!LO:TX:t=P:problem:kreska pseudotaktowa	!	!	!	!	!
.	.	4D/	In	4F#X/	In	.	.	.	.
2D\	#	4.D/	tri-	4.F#/	tri-	1r	.	2r	.
.	.	8D/	-bu-	8F#/	-bu-	.	.	.	.
2D\	- 56	4.D/	-la-	4.F#/	-la-	.	.	8r	.
.	.	.	.	.	.	.	.	8dd\	ad-
.	.	.	.	.	.	.	.	8b\	-quem
!	!	!	!	!	!	!	!	!LO:TX:t=P:problem:kreska pseudotaktowa	!
.	.	8D/	-ti-	8F#/	-ti-	.	.	8b\	cla-
=3-	=3-	=3-	=3-	=3-	=3-	=3-	=3-	=3-	=3-
2E-X\	.	(2E-X\	-o-	[<2G/	-o-	8r	.	4.g/	-ma-
.	.	.	.	.	.	8g\	ad-	.	.
.	.	.	.	.	.	8e-X\	-quem	.	.
.	.	.	.	.	.	8e-\	cla-	8g/	-bi-
!LO:TX:t=P:problem:kreska pseudotaktowa	!	!LO:N:acc=#	!	!	!	!	!	!	!
!LO:N:acc=#	!	!	!	!	!	!	!	!	!
2En\	.	4.En\)	.	4.G/]	.	4.c/	-ma-	4g/	-m(us)
.	.	.	.	.	.	.	.	4r	.
.	.	8F\	-ni-	8A/	-ni-	8c/	-bi-	.	.
!	!	!	!	!	!	!	!	!LO:LB:g=original	!
4F\	.	8F\	-b(us)	2A/	-b(us)	8c/	-m(us)	2r	.
!	!	!	!	!	!	!LO:SIC:v:t=custos f	!	!	!
.	.	8F\	ad-	.	.	8a\	ad-	.	.
!	!	!	!	!	!	!LO:LB:g=original	!	!	!
4D\	.	8D/	-quem	.	.	8fny\	-quem	.	.
.	.	8D/	cla-	.	.	8f\	cla-	.	.
2BB-/	56	8.BB-/	-ma-	8r	.	4.d\	-ma-	8r	.
.	.	.	.	8B-\	ad	.	.	8dd\	ad-
.	.	16BB-/	-bi-	.	.	.	.	.	.
.	.	8BB-/	-m(us)	8G/	que(m)	.	.	8b-y\	-quem
!	!	!LO:SIC:v:t=custos C	!	!	!	!	!	!LO:TX:t=P:problem:kreska pseudotaktowa	!
.	.	8BB-/	cla-	8D/	cla-	16e-\LL	.	8a\	cla-
.	.	.	.	.	.	16f\JJ	.	.	.
=4-	=4-	=4-	=4-	=4-	=4-	=4-	=4-	=4-	=4-
!	!	!LO:LB:g=original	!	!	!	!	!	!	!
2C/	43	4.C/	-ma-	4.Fny/	-ma-	4.c/	.	4.g/	-ma-
.	.	8C/	-bi-	8E/	-bi-	8c/	-bi-	8g/	-bi-
2FF/	.	4FF/	-m(us)	4E/	-m(us)	8c/	-m(us)	8a\	-m(us)
*	*	*	*	*	*	*	*	*	*ij
.	.	.	.	.	.	8a\	ad-	8cc\	ad-
*	*	*	*	*2\right	*	*	*	*	*
!	!	!	!	!LO:TX:a:t=P:problem:# above	!	!	!	!	!
.	.	4FF/	cla-	2c#X\	in	8f\	-quem	8a\	-quem
!	!	!	!	!	!	!	!	!LO:TX:t=P:problem:kreska pseudotaktowa	!
.	.	.	.	.	.	8f\	cla-	8a\	cla-
2BB-/	56	2BB-/	-ma-	.	.	2d\	-ma-	(>4f/	-ma-
!	!	!	!	!LO:SIC:v:t=custos d	!	!	!	!	!
.	.	.	.	4c#\	ju-	.	.	4g/)	.
*	*	*	*	*2\left	*	*	*	*	*
!LO:SIC:v:t=custos AA	!	!	!	!LO:LB:g=original	!	!	!	!	!
2AA/	65 43	2AA/	-bi-	[>2d\	.	4.d\	-bi-	4.a\	-bi-
!	!	!	!	!	!	!	!	!LO:TX:t=P:problem:kreska pseudotaktowa	!
.	.	.	.	.	.	8c#X\	-m(us)	8a\	-mus
=5-	=5-	=5-	=5-	=5-	=5-	=5-	=5-	=5-	=5-
!LO:TX:t=P:problem:kreska pseudotaktowa	!	!	!	!	!	!	!	!	!
!LO:LB:g=original	!	!	!	!	!	!	!	!	!
1AA	#	2AA/	-m(us)	4.d\]	.	4c#\	in	2a\	.
.	.	.	.	.	.	2eny\	an-	.	.
!	!	!	!	!LO:TX:t=P:problem:kreska pseudotaktowa	!	!	!	!	!
.	.	.	.	8c#X\	.	.	.	.	.
.	.	2r	.	2c#\	-ſtus	.	.	2r	.
.	.	.	.	.	.	4e\	-gu-	.	.
2BB-X/	6	1r	.	2r	.	(2g\	.	1r	.
!LO:TX:t=P:problem:fba #6\	!	!	!	!	!	!	!	!	!
!LO:N:acc=#	!	!	!	!LO:TX:a:t=2	!	!	!	!	!
2BBn/	#6\	.	.	1.r	.	4.g#X\)	.	.	.
.	.	.	.	.	.	8a\	-tris	.	.
=6-	=6-	=6-	=6-	=6-	=6-	=6-	=6-	=6-	=6-
2AA#X/	56 3	2r	.	.	.	8a\	.	2r	.
!	!	!	!	!	!	!LO:SIC:v:t=custos f	!	!	!
.	.	.	.	.	.	8a\	ad-	.	.
!	!	!	!	!	!	!LO:LB:g=original	!	!	!
.	.	.	.	.	.	8f\	-quem	.	.
.	.	.	.	.	.	8f\	cla-	.	.
!LO:TX:t=P:problem:kreska pseudotaktowa	!	!	!	!	!	!	!	!	!
2BB-y/	.	8r	.	.	.	4.d\	-ma-	8r	.
.	.	8B-\	ad-	.	.	.	.	8dd\	ad-
.	.	8G\	-quem	.	.	.	.	8b-\	-quem
!	!	!LO:TX:t=P:problem:kreska pseudotaktowa	!	!	!	!	!	!LO:SIC:v:t=custos g	!
.	.	8F\	cla-	.	.	8d\	-bi-	8a\	cla-
!	!	!	!	!	!	!	!	!LO:LB:g=original	!
2C/	.	4.E\	-ma-	2r	.	2.e\	-m(us)	4.g\	-ma-
.	.	8D\	-bi-	.	.	.	.	8g\	-bi-
!LO:TX:t=P:problem:kreska pseudotaktowa	!	!	!	!	!	!	!	!	!
2C/	56	4C/	-m(us)	8r	.	.	.	4g\	-mus
.	.	.	.	8cny\	ad-	.	.	.	.
.	.	4C/	cla-	8A\	-quem	4e\	cla-	4cc\	ad-
.	.	.	.	8G/	cla-	.	.	.	.
=7-	=7-	=7-	=7-	=7-	=7-	=7-	=7-	=7-	=7-
1D#X	765 343	2.D/	-ma-	4F#X/	-ma-	2.d\	-ma-	4cc\	-quem
.	.	.	.	2G/	-bi-	.	.	4b-\	cla-
.	.	.	.	.	.	.	.	4.a\	-ma-
.	.	4D/	-bi-	4F#/	-m(us)	4d\	-bi-	.	.
!	!	!	!	!	!	!	!	!LO:TX:t=P:problem:kreska pseudotaktowa	!
.	.	.	.	.	.	.	.	8a\	-bi-
!	!	!	!	!	!	!	!	!LO:N:acc=#	!
2GG#X/	.	2GG/	-m(us)	4G/	in	4d\	-m(us)	4bn\	-mus
!	!	!	!	!LO:N:acc=#	!	!	!	!	!
.	.	.	.	4.Bn\	ne-	4.d\	in	4r	.
!	!	!	!	!	!	!	!	!LO:TX:t=P:problem:kreska pseudotaktowa	!
2G\	.	2r	.	.	.	.	.	2r	.
.	.	.	.	8B\	-ceſ-	8d\	ne-	.	.
.	.	.	.	8B\	-ſi-	8d\	-ceſ-	.	.
.	.	.	.	8B\	-ta-	8d\	-ſi-	.	.
=8-	=8-	=8-	=8-	=8-	=8-	=8-	=8-	=8-	=8-
!	!	!LO:LB:g=original	!	!	!	!	!	!	!
2A-X\	-6	1r	.	[>2c\	-[[ti-	(>2f\	-ta-	1r	.
!LO:N:acc=#	!	!	!	!	!	!	!	!	!
2An\	6	.	.	(>4.c\]	-b(us)]]	4.f#X\)	.	.	.
!	!	!	!	!LO:N:acc=#	!	!	!	!	!
.	.	.	.	8Bn\)	-ti-	8gny\	-ti-	.	.
4G\	#	8r	.	4B\	-b(us)	2g\	-b(us)	2r	.
.	.	8G\	ad-	.	.	.	.	.	.
!	!	!	!	!LO:SIC:v:t=custos c	!	!	!	!	!
8E-X\L	6	8E-X\	-quem	4r	.	.	.	.	.
8Dny\J	.	8D/	cla-	.	.	.	.	.	.
!LO:SIC:v:t=custos D	!	!	!	!LO:LB:g=original	!	!LO:SIC:v:t=custos f	!	!	!
2C/	.	8.C/	-ma-	8r	.	2r	.	8r	.
.	.	.	.	8c\	ad	.	.	8ee-X\	ad-
.	.	16C/	-bi-	.	.	.	.	.	.
.	.	4C/	-m(us)	8A\	quem	.	.	8cc\	-quem
!	!	!	!	!	!	!	!	!LO:TX:t=P:problem:kreska pseudotaktowa	!
.	.	.	.	8G/	cla-	.	.	8b-y\	cla-
=9-	=9-	=9-	=9-	=9-	=9-	=9-	=9-	=9-	=9-
!LO:LB:g=original	!	!	!	!LO:TX:t=P:problem:mixed beam	!	!LO:LB:g=original	!	!	!
2D\	.	4r	.	8Fny/L	-ma-	8r	.	8.a\	-ma-
.	.	.	.	16d/L	.	8fny\	ad-	.	.
.	.	.	.	16c/JJ	.	.	.	16a\	-bi-
.	.	4D\	in	8B-y/L	.	8d\	-quem	4a\	-mus
*	*	*	*	*	*	*	*	*	*Xij
.	.	.	.	8A/J	.	8cny/	cla-	.	.
!	!	!	!	!	!	!	!	!LO:TX:t=P:problem:kreska pseudotaktowa	!
!	!	!	!	!	!	!	!	!LO:SIC:v:t=custos cc	!
2E-X\	.	4.E-X\	per-	8.G/	.	8.B-/	-ma-	2r	.
.	.	.	.	16G/	-bi-	16B-/	-bi-	.	.
.	.	.	.	8G/	-m(us)	8B-/	-m(us)	.	.
*	*	*	*	*	*	*	*ij	*	*
.	.	8E-\	-ſe-	8e-X\	ad-	8g\	ad-	.	.
!LO:N:acc=#	!	!LO:N:acc=#	!	!	!	!	!	!LO:LB:g=original	!
2En\	.	4.En\	-cu-	4.c\	-quem	4.g\	-quem	2r	.
.	.	8F\	-ti-	8B-\	cla-	8g\	cla-	.	.
!LO:TX:t=P:problem:kreska pseudotaktowa	!	!	!	!	!	!	!	!	!
2F\	.	4.F\	-o-	8.A/	-ma-	4.f\	-ma-	4r	.
.	.	.	.	16A/	-bi-	.	.	.	.
!	!	!	!	!	!	!	!	!LO:TX:t=P:problem:kreska pseudotaktowa	!
.	.	.	.	8A/	-m(us)	.	.	4cc\	in
.	.	8F\	-ni-	8A/	in	8f\	-bi-	.	.
=10-	=10-	=10-	=10-	=10-	=10-	=10-	=10-	=10-	=10-
!	!	!	!	!LO:N:acc=#	!	!	!	!	!
1D	6 #	8F\	-b(us)	4.Bn\	per-	2f\	-mus	4.dd\	per-
!	!	!LO:SIC:v:t=custos D	!	!	!	!	!	!	!
.	.	8F\	ad	.	.	.	.	.	.
!	!	!LO:N:vis=4.	!	!	!	!	!	!	!
!	!	!LO:LB:g=original	!	!	!	!	!	!	!
.	.	8.D/	quem	.	.	.	.	.	.
!	!	!	!	!LO:SIC:v:t=custos B-	!	!	!	!	!
.	.	.	.	8B\	-ſe-	.	.	8dd\	-ſe-
!	!	!LO:N:vis=8	!	!	!	!	!	!	!
.	.	16D/	cla-	.	.	.	.	.	.
!	!	!	!	!LO:LB:g=original	!	!	!	!	!
.	.	4.D/	-ma-	4.B\	-cu-	2r	.	4.dd\	-cu-
!	!	!	!	!	!	!	!	!LO:TX:t=P:problem:kreska pseudotaktowa	!
.	.	16D/LL	-bi-	8c\	-ti-	.	.	8ee-X\	-ti-
.	.	16C/JJ	.	.	.	.	.	.	.
1C	-	4.C/	-m(us)	4.c\	-o-	2r	.	4.ee-\	-o-
.	.	8C/	ad-	8c\	-ni-	.	.	8ee-\	-ni-
.	.	4.C/	-quem	4c\	-bus	8r	.	8ee-\	-b(us)
.	.	.	.	.	.	8g\	ad-	8ee-\	ad-
.	.	.	.	4r	.	8e-X\	-quem	8cc\	-quem
!	!	!	!	!	!	!	!	!LO:TX:t=P:problem:kreska pseudotaktowa	!
.	.	8C/	cla-	.	.	8e-\	cla-	8cc\	cla-
=11-	=11-	=11-	=11-	=11-	=11-	=11-	=11-	=11-	=11-
!	!	!	!	!	!	!	!	!LO:N:acc=#	!
2G\	#	8.G\	-ma-	4r	.	8.d\	-ma-	8.bn\	-ma-
!	!	!	!	!	!	!LO:SIC:v:t=custos d	!	!	!
.	.	16G\	-bi-	.	.	16d\	-bi-	16b\	-bi-
!	!	!	!	!	!	!LO:LB:g=original	!	!	!
.	.	8G\	-m(us)	8r	.	8d\	-mus	8b\	-m(us)
*	*	*	*ij	*	*	*	*	*	*
.	.	8G\	ad	8d\	ad-	8g\	ad-	8b\	ad-
4E-X\	.	4E-X\	quem	4e-X\	-quem	4.g\	-quem	4cc\	-quem
!	!	!LO:N:acc=#	!	!	!	!	!	!LO:TX:t=P:problem:kreska pseudotaktowa	!
!LO:TX:t=P:problem:kreska pseudotaktowa	!	!	!	!	!	!	!	!LO:SIC:v:t=custos cc	!
!LO:N:acc=#	!	!	!	!	!	!	!	!	!
4BBn/	6	4BBn/	cla-	4d\	cla-	.	.	4dd\	cla-
.	.	.	.	.	.	8g\	cla-	.	.
!	!	!	!	!	!	!	!	!LO:LB:g=original	!
2C/	-	8.C/	-ma-	8.e-X\	-ma-	8.g\	-ma-	8.cc\	-ma-
.	.	16C/	-bi-	16e-\	-bi-	16g\	-bi-	16cc\	-bi-
.	.	8C/	-mus	8e-\	-mus	8g\	-mus	8cc\	-m(us)
*	*	*	*Xij	*	*	*	*Xij	*	*
!	!	!LO:SIC:v:t=custos A	!	!LO:SIC:v:t=custos c	!	!	!	!	!
.	.	8C/	cla-	8e-\	cla-	8g\	cla-	8cc\	cla-
!	!	!LO:LB:g=original	!	!LO:LB:g=original	!	!	!	!LO:TX:t=P:problem:kreska pseudotaktowa	!
2A-X\	7	[>2A-X\	-ma-	[>2c\	-ma-	[>2g\	-ma-	[>2cc\	-ma-
=12-	=12-	=12-	=12-	=12-	=12-	=12-	=12-	=12-	=12-
2A-\	76	4.A-\]	.	4.c\]	.	4g\]	.	2cc\_	.
.	.	.	.	.	.	4f\	-bi-	.	.
.	.	16A-\LL	-bi-	8d\	.	.	.	.	.
.	.	16G\JJ	.	.	.	.	.	.	.
!LO:TX:t=P:problem:kreska pseudotaktowa	!	!	!	!	!	!	!	!	!
2G\	65 43	2G\	-m(us)	8e-X\	.	2g\	-m(us)	8cc\]	.
!	!	!	!	!	!	!	!	!LO:N:acc=#	!
.	.	.	.	8d\	-bi-	.	.	8bn\	-bi-
!	!	!	!	!	!	!	!	!LO:TX:t=P:problem:kreska pseudotaktowa	!
.	.	.	.	4d\	-m(us)	.	.	4b\	-m(us)
2E-X\	.	4E-X\	ni-	4e-X\	ni-	4g\	ni-	4b-X\	ni-
.	.	8E-X\	-ſi	8e-\	-ſi	8g\	-ſi	8b-\	-ſi
.	.	8E-\	ad	8e-\	ad	8g\	ad	8b-\	ad
!	!	!	!	!	!	!	!	!LO:TX:t=P:problem:kreska pseudotaktowa	!
2BB-y/	.	2BB-y/	te	2d\	te	2f\	te	2b-\	te
=13-	=13-	=13-	=13-	=13-	=13-	=13-	=13-	=13-	=13-
!LO:N:acc=#	!	!LO:N:acc=#	!	!	!	!	!	!	!
2BBn/	6 -5	4BBn/	De-	4d\	De-	4f\	De-	4g/	De-
!	!	!	!	!	!	!LO:SIC:v:t=custos f	!	!	!
.	.	4BB/	-us	4d\	-us	4f\	-us	4g/	-us
!LO:SIC:v:t=custos F	!	!	!	!	!	!LO:LB:g=original	!	!LO:TX:t=P:problem:kreska pseudotaktowa	!
2C/	43	2C/	nos-	2c\	noſ-	4.f\	nos-	2g/	noſ-
.	.	.	.	.	.	8eny\	-ter	.	.
!LO:LB:g=original	!	!	!	!	!	!	!	!	!
2F\	.	4FF/	-ter	2c\	-ter	4f\	Pa-	4a\	-ter
.	.	4F\	Pa-	.	.	4a\	-ter	4r	.
!	!	!	!	!	!	!	!	!LO:SIC:v:t=custos ff	!
2E-X\	6	8E-X\	-ter	4r	.	8g\	mi-	2r	.
.	.	8E-\	mi-	.	.	8g\	-ſe-	.	.
.	.	8E-\	-ſe-	4c\	Pa-	8g\	-ri-	.	.
!	!	!LO:SIC:v:t=custos D	!	!	!	!	!	!	!
.	.	8E-\	-ri-	.	.	8g\	-cor-	.	.
=14-	=14-	=14-	=14-	=14-	=14-	=14-	=14-	=14-	=14-
!	!	!LO:LB:g=original	!	!	!	!	!	!LO:LB:g=original	!
2D\	76 -3	4.D/	-ſe-	8c\	-ter	4.f\	-di-	4r	.
!	!	!	!	!LO:N:acc=#	!	!	!	!	!
!	!	!	!	!LO:TX:a:t=P:problem:# above	!	!	!	!	!
.	.	.	.	8Bn\	mi-	.	.	.	.
.	.	.	.	8B\	-ſe-	.	.	4ff\	Pa-
!	!	!	!	!LO:SIC:v:t=custos c	!	!	!	!	!
.	.	8D/	-ri-	8B\	-ri-	8g\	-a-	.	.
!LO:TX:t=P:problem:kreska pseudotaktowa	!	!	!	!LO:LB:g=original	!	!	!	!	!
2C/	-	4C/	-cor-	4.c\	-cor-	4g\	-rum	8ee-X\	-ter
.	.	.	.	.	.	.	.	8ee-\	mi-
.	.	8C/	-di-	.	.	8g\	&	8ee-\	-ſe-
!	!	!	!	!	!	!	!	!LO:TX:t=P:problem:kreska pseudotaktowa	!
.	.	8C/	-a-	8c\	-di-	8g\	con-	8ee-\	-ri-
2FF#X/	6 5 -	8FF#X/	-rum	2c\	-a-	8a\	-ſo-	4.dd\	-cor-
.	.	8FF#/	&	.	.	8a\	-la-	.	.
.	.	8FF#/	con-	.	.	8a\	-ti-	.	.
.	.	8FF#/	-ſo-	.	.	8a\	-o-	8dd\	-di-
!	!	!	!	!LO:N:acc=#	!	!	!	!	!
4GGny/	.	4GG/	-la-	4.Bn\	-rum	4g\	-nis	4dd\	-a-
4G\	#	8GG/	-ti-	.	.	8g\	&	8dd\	-rum
!	!	!	!	!	!	!LO:SIC:v:t=custos a	!	!LO:TX:t=P:problem:kreska pseudotaktowa	!
!	!	!	!	!	!	!	!	!LO:N:acc=#	!
.	.	8G\	-o-	8d\	&	8g\	con-	8bn\	&
=15-	=15-	=15-	=15-	=15-	=15-	=15-	=15-	=15-	=15-
!	!	!	!	!	!	!LO:LB:g=original	!	!	!
2G\	6 4 #2	4.G\	-nis	4.eny\	con-	4.a\	-ſo-	4.cc#X\	con-
.	.	8G\	&	8e\	-ſo-	8a\	-la-	8cc#\	-ſo-
4.F\	6	4.F\	con-	4.f\	-la-	4.a\	-ti-	4.dd\	-la-
!LO:TX:t=P:problem:kreska pseudotaktowa	!	!	!	!	!	!	!	!LO:TX:t=P:problem:kreska pseudotaktowa	!
8G\	.	8G\	-ſo-	8e\	-ti-	8a\	-o-	8dd\	-ti-
1A#X	343	1Any	-la-	1e	-o-	1a	-nis	4.dd\	-o-
.	.	.	.	.	.	.	.	(16eeny\LL	[[-nis]]-
.	.	.	.	.	.	.	.	16dd\JJ)	.
!	!	!	!	!	!	!	!	!LO:TX:t=P:problem:kreska pseudotaktowa	!
.	.	.	.	.	.	.	.	2cc#X\	.
=16-	=16-	=16-	=16-	=16-	=16-	=16-	=16-	=16-	=16-
2.D\	-	2D/	-tionis	2f\	-nis	4a\	&	2dd\	-nis
.	.	.	.	.	.	4a\	con-	.	.
.	.	4r	.	2r	.	4f\	-ſo-	2r	.
!	!	!LO:SIC:v:t=custos D	!	!	!	!	!	!	!
4Eny\	6 #	4Eny\	Pa-	.	.	4c#X/	-la-	.	.
!	!	!LO:LB:g=original	!	!	!	!	!	!LO:LB:g=original	!
2D\	-	8D\	-ter	2r	.	8d\	-ti-	4r	.
.	.	8D\	mi-	.	.	8e\	-o-	.	.
.	.	8D\	-ſe-	.	.	4f#X\	-nis	4dd\	et
.	.	8D\	-ri-	.	.	.	.	.	.
4G\	-	4G\	-cor-	4r	.	4g\	.	4b-\	con-
!LO:TX:t=P:problem:kreska pseudotaktowa	!	!	!	!	!	!	!	!	!
!LO:SIC:v:t=custos G	!	!	!	!	!	!	!	!LO:TX:t=P:problem:kreska pseudotaktowa	!
4Any\	6 #3	4A\	-di-	4c	Pa-	4r	.	4f#X/	-ſo-
=17-	=17-	=17-	=17-	=17-	=17-	=17-	=17-	=17-	=17-
!LO:LB:g=original	!	!	!	!	!	!	!	!	!
2G\	.	8G\	-a-	8B-\	-ter	2r	.	[>1g	-la-
.	.	8G\	-rum	8B-\	mi-	.	.	.	.
.	.	4G\	et	8B-\	-ſe-	.	.	.	.
.	.	.	.	8B-\	-ri-	.	.	.	.
4E-X\	6	4E-X\	con-	4c\	-cor-	4r	.	.	.
!LO:N:acc=#	!	!	!	!LO:SIC:v:t=custos c	!	!	!	!	!
4BBn/	6	4C#X/	-ſo-	4d\	-di-	4d\	&	.	.
!	!	!	!	!LO:LB:g=original	!	!	!	!	!
2C/	.	2C#/	-la-	4c\	-a-	4.e\	con-	2g/]	.
.	.	.	.	8c\	-rum	.	.	.	.
.	.	.	.	8c\	et	8e\	-ſo-	.	.
!	!	!	!	!LO:N:acc=#	!	!	!	!	!
2D/	10 #6	2D/	-ti-	8Bn\	con-	4fny\	-la-	2g/	-ti-
.	.	.	.	8B\	-ſo-	.	.	.	.
!	!	!	!	!	!	!LO:SIC:v:t=custos f	!	!	!
.	.	.	.	8B\	-la-	4f\	-ti-	.	.
.	.	.	.	8B\	-ti-	.	.	.	.
=18-	=18-	=18-	=18-	=18-	=18-	=18-	=18-	=18-	=18-
!	!	!	!	!	!	!LO:LB:g=original	!	!	!
2C/	5 43	1Cny	-o-	1c	-o-	4.f\	-o-	1g	-o-
.	.	.	.	.	.	16g\LL	.	.	.
.	.	.	.	.	.	16f\JJ	.	.	.
2C/	.	.	.	.	.	2e\	.	.	.
!LO:TX:t=P:problem:kreska pseudotaktowa	!	!	!	!	!	!	!	!	!
1FFny	.	1FFny	-nis	1c	-nis	1f	-nis	1a	-nis
=19||-	=19||-	=19||-	=19||-	=19||-	=19||-	=19||-	=19||-	=19||-	=19||-
*M3/1	*	*M3/1	*	*M3/1	*	*M3/1	*	*M3/1	*
2F\	.	2F\	dul-	1%6r	.	2a\	dul-	2ccny\	Dul-
2D\	- 6 5	2D\	-ce	.	.	2a\	-ce	2.b-\	-ce
!	!	!LO:SIC:v:t=custos F	!	!	!	!	!	!	!
2Eny\	.	2Eny\	ſo-	.	.	2g\	ſo-	.	.
.	.	.	.	.	.	.	.	4b-\	ſo-
!	!	!LO:LB:g=original	!	!	!	!	!	!	!
1.F	98	2.F\	-la-	.	.	2.g\	-la-	2.a\	-la-
.	.	4F\	-ti-	.	.	4f\	-ti-	4a\	-ti-
.	.	2F\	-um	.	.	2f\	-um	2a\	-um
=20-	=20-	=20-	=20-	=20-	=20-	=20-	=20-	=20-	=20-
2F\	.	2F\	&	.	.	2cny/	&	2a\	&
2D\	.	2D\	re-	.	.	2.f\	re-	2dd\	re-
!	!	!	!	!	!	!	!	!LO:SIC:v:t=custos cc	!
!	!	!	!	!	!	!	!	!LO:N:acc=#	!
2G\	7 #3	2A\	-fri-	.	.	.	.	2bn\	-fri-
.	.	.	.	.	.	4f\	-fri-	.	.
!	!	!	!	!	!	!	!	!LO:LB:g=original	!
1.C	.	2.C/	-ge-	.	.	2.e\	-ge-	2.cc\	-ge-
.	.	4C/	-ri-	.	.	4e\	-ri-	4cc\	-ri-
!	!	!	!	!	!	!LO:SIC:v:t=custos d	!	!	!
.	.	2C/	-um	.	.	2e\	-um	2cc\	-um
=21-	=21-	=21-	=21-	=21-	=21-	=21-	=21-	=21-	=21-
*col	*	*col	*	*	*	*col	*	*col	*
!	!	!	!	!	!	!LO:PB:g=original	!	!	!
1FF#X	.	1FF#X	cor-	1%6r	.	1d	cor-	1cc	cor-
1FF#	6 -5	1FF#	-dis	.	.	1d	-dis	1cc	-dis
*	*	*	*	*	*	*	*	*Xcol	*
!LO:SIC:v:t=custos C	!	!LO:TX:t=P:problem:kreska pseudotaktowa	!	!	!	!	!	!	!
1GG	43	1GG	noſ-	.	.	1d	noſ-	2.cc\	noſ-
!	!	!	!	!	!	!	!	!LO:N:acc=#	!
.	.	.	.	.	.	.	.	4bn\	.
*Xcol	*	*Xcol	*	*	*	*Xcol	*	*	*
=22-	=22-	=22-	=22-	=22-	=22-	=22-	=22-	=22-	=22-
!LO:LB:g=original	!	!	!	!	!	!	!	!LO:TX:t=P:problem:kreska pseudotaktowa	!
1.C	43	1.C	-tri	.	.	1.e	-tri	1.cc	-tri
2C/	.	2C/	dul-	.	.	2e\	dul-	2a\	dul-
2AAny/	.	2AA/	-ce	.	.	2a\	-ce	2cc\	-ce
2D/	#	2D/	ſo-	.	.	2f#X\	ſo-	2a\	ſo-
=23-	=23-	=23-	=23-	=23-	=23-	=23-	=23-	=23-	=23-
!LO:TX:t=P:problem:kreska pseudotaktowa	!	!	!	!	!	!	!	!	!
1.G	.	2.GG/	-la-	1%6r	.	2.g\	-la-	2.b-y\	-la-
.	.	4GG/	-ti-	.	.	4g\	-ti-	4b-\	-ti-
.	.	2GG/	-um	.	.	2g\	-um	2b-\	-um
!	!	!LO:PB:g=original	!	!	!	!	!	!	!
2G\	-6	2G\	&	.	.	2e-X\	&	2b-\	&
1A	.	2.A\	re-	.	.	2.e-\	re-	2.cc\	re-
!	!	!	!	!	!	!	!	!LO:SIC:v:t=custos f	!
.	.	4A\	-fri-	.	.	4e-\	-fri-	4cc\	-fri-
=24-	=24-	=24-	=24-	=24-	=24-	=24-	=24-	=24-	=24-
!LO:TX:t=P:problem:kreska pseudotaktowa	!	!	!	!	!	!	!	!	!
!	!	!	!	!	!	!	!	!LO:PB:g=original	!
1.B-	5 43	2.B-\	-ge-	.	.	2.e-\	-ge-	2.fny/	-ge-
.	.	4B-\	-ri-	.	.	4d\	-ri-	4f/	-ri-
!	!	!	!	!	!	!LO:SIC:v:t=custos d	!	!	!
.	.	2B-\	-um	.	.	2d\	-um	2f/	-um
*col	*	*col	*	*	*	*col	*	*col	*
1G	.	1G	cor-	.	.	1d	cor-	1b-	cor-
1G\	6 5	1G#X\	-dis	.	.	1d\	-dis	1e/	-dis
*	*	*	*	*	*	*Xcol	*	*	*
=25-	=25-	=25-	=25-	=25-	=25-	=25-	=25-	=25-	=25-
.	.	.	.	2r	.	.	.	.	.
1A	4 3	1A	nos-	2.A/	non	(>2.d\	noſ-	1e	noſ-
.	.	.	.	4A/	ſpe-	4c#X/)	.	.	.
*Xcol	*	*Xcol	*	*	*	*	*	*Xcol	*
1.D	-	1D	-tri	2F/	-ra-	1d	-tri	1f	-tri
.	.	.	.	2D/	-bit	.	.	.	.
!	!	!	!	!LO:SIC:v:t=custos C	!	!	!	!	!
.	.	2r	.	2D/	cor	2r	.	2r	.
=26-	=26-	=26-	=26-	=26-	=26-	=26-	=26-	=26-	=26-
!	!	!	!	!LO:LB:g=original	!	!	!	!	!
1.AA	#	2r	.	2C#X/	noſ-	2r	.	1r	.
.	.	1AA	non	2C#/	-trum	2.a\	non	.	.
!	!	!	!	!	!	!	!	!LO:TX:t=P:problem:brak pauzy 2r	!
.	.	.	.	2E/	non	.	.	2ryy	.
.	.	.	.	.	.	4a\	ſpe-	.	.
!LO:TX:t=P:problem:kreska pseudotaktowa	!	!	!	!	!	!	!	!	!
1.D	-	2r	.	2r	.	2fny\	-ra-	2r	.
.	.	1D	non	1F	non	2.d\	-bit	2.dd\	non
.	.	.	.	.	.	4d\	cor	4dd\	ſpe-
=27-	=27-	=27-	=27-	=27-	=27-	=27-	=27-	=27-	=27-
2AA/	.	2r	.	2r	.	2eny\	noſ-	2cc#X\	-ra-
*	*	*	*	*	*ij	*	*	*	*
1A	#	2.A\	non	1A	non	2e\	-trum	2a\	-bit
.	.	.	.	.	.	2e\	non	2cc#\	cor
.	.	4A\	ſpe-	.	.	.	.	.	.
2F\	6	2F\	-ra-	2r	.	2r	.	2dd\	no-
!LO:SIC:v:t=custos C	!	!	!	!	!	!LO:SIC:v:t=custos a	!	!	!
1D	.	2.D/	-bit	1A	non	1f	non	2dd\	-ſtru(m)
*	*	*	*	*	*Xij	*	*	*	*
.	.	.	.	.	.	.	.	2dd\	non
!	!	!LO:SIC:v:t=custos C	!	!	!	!	!	!	!
.	.	4D/	cor	.	.	.	.	.	.
=28-	=28-	=28-	=28-	=28-	=28-	=28-	=28-	=28-	=28-
!LO:TX:t=P:problem:kreska pseudotaktowa	!	!	!	!	!	!	!	!	!
!LO:LB:g=original	!	!LO:LB:g=original	!	!	!	!LO:LB:g=original	!	!	!
1.C#X	6	2C#X/	noſ-	1r	.	2r	.	2r	.
!	!	!	!	!	!	!	!	!LO:SIC:v:t=custos ff	!
.	.	2C#/	-trum	.	.	2.a\	non	1ee	non
!	!	!	!	!LO:TX:t=P:problem:brak pauzy 2r	!	!	!	!	!
.	.	2C#/	non	2ryy	.	.	.	.	.
.	.	.	.	.	.	4a\	ſpe-	.	.
!	!	!	!	!	!	!	!	!LO:LB:g=original	!
1.D	-	1.D	non	2r	.	2f\	-ra-	2r	.
.	.	.	.	2.d\	non	2d\	-bit	2.ff\	non
.	.	.	.	.	.	2d\	cor	.	.
.	.	.	.	4d\	ſpe-	.	.	4ff\	ſpe-
=29-	=29-	=29-	=29-	=29-	=29-	=29-	=29-	=29-	=29-
1.A	#	2r	.	2c#X\	-ra-	2e\	noſ-	2ee\	-ra-
.	.	1AA	non	2A\	-bit	2e\	-trum	2cc#X\	-bit
.	.	.	.	2c#\	cor	2A/	non	2ee\	cor
!LO:TX:t=P:problem:kreska pseudotaktowa	!	!	!	!	!	!	!	!	!
1.D	-	2r	.	2d\	nos-	2r	.	2ff\	noſ-
*	*	*	*ij	*	*	*	*	*	*
.	.	1D	non	2d\	-trum	1a	non	2ff\	-trum
.	.	.	.	2d\	.	.	.	2ff\	non
=30-	=30-	=30-	=30-	=30-	=30-	=30-	=30-	=30-	=30-
*	*	*	*	*	*	*	*ij	*	*
1.A	#	1A	non	1c#X	non	1a	non	1.ee	non
*	*	*	*Xij	*	*	*	*Xij	*	*
.	.	2r	.	2r	.	2r	.	.	.
!	!	!	!	!LO:PB:g=original	!	!	!	!	!
1F	.	2F\	ni-	2c#\	ni-	2a\	ni-	1.ff	non
.	.	2F\	-ſi	2c#\	-ſi	2a\	-ſi	.	.
2AA/	6	2BB-y/	in	2c#\	in	2f\	[[Deo]]	.	.
=31-	=31-	=31-	=31-	=31-	=31-	=31-	=31-	=31-	=31-
!LO:TX:t=P:problem:kreska pseudotaktowa	!	!	!	!	!	!	!	!	!
1.Cny	43	2Cny/	De-	1.G	De-	1f	De-	1%3r	.
.	.	2C/	-o	.	.	.	.	.	.
!	!	!	!	!	!	!LO:SIC:v:t=custos f	!	!	!
.	.	4c\	non	.	.	2e\	.	.	.
.	.	4c\	ſpe-	.	.	.	.	.	.
!	!	!	!	!	!	!LO:LB:g=original	!	!	!
1.F	.	2A\	-ra-	1.A	-o	2f\	-o	.	.
.	.	2F\	-bit	.	.	2.f\	non	.	.
!	!	!LO:SIC:v:t=custos c	!	!	!	!	!	!	!
.	.	2F\	cor	.	.	.	.	.	.
.	.	.	.	.	.	4f\	ſpe-	.	.
=32-	=32-	=32-	=32-	=32-	=32-	=32-	=32-	=32-	=32-
!	!	!LO:LB:g=original	!	!	!	!	!	!	!
1.C	.	2c\	nos-	1%6r	.	2e\	-ra-	2r	.
.	.	2c\	-tru(m)	.	.	2cny/	-bit	2.ccny\	non
.	.	2C/	non	.	.	2e\	cor	.	.
.	.	.	.	.	.	.	.	4cc\	ſpe-
!LO:TX:t=P:problem:kreska pseudotaktowa	!	!	!	!	!	!	!	!	!
1.F	.	2F\	non	.	.	2f\	noſ-	2a\	-ra-
.	.	2r	.	.	.	2f\	-tru(m)	2f/	-bit
*	*	*	*ij	*	*	*	*	*	*
!	!	!	!	!	!	!	!	!LO:SIC:v:t=custos g	!
.	.	2F\	non	.	.	2f\	non	2a\	cor
=33-	=33-	=33-	=33-	=33-	=33-	=33-	=33-	=33-	=33-
!	!	!	!	!	!	!	!	!LO:LB:g=original	!
1C	.	2C/	non	.	.	2e\	non	2g\	noſ-
.	.	2r	.	.	.	2r	.	2g/	-trum
*	*	*	*	*	*	*	*ij	*	*
2G\	.	2Gny\	non	.	.	2g\	non	2b-\	no(n)
!LO:SIC:v:t=custos E	!	!	!	!	!	!	!	!	!
1.D	#	1D	non	.	.	1.f#X	non	1.a	(n)o(n)
*	*	*	*Xij	*	*	*	*Xij	*	*
.	.	2r	.	.	.	.	.	.	.
=34-	=34-	=34-	=34-	=34-	=34-	=34-	=34-	=34-	=34-
!LO:LB:g=original	!	!	!	!	!	!	!	!	!
2E-X\	.	2E-X\	ni-	1r	.	2g\	ni-	2cc\	ni-
1C	.	2C/	-ſi	.	.	2g\	-ſi	2cc\	-ſi
.	.	2C/	in	2r	.	2g\	.	2b-\	in
!LO:TX:t=P:problem:kreska pseudotaktowa	!	!	!	!	!	!	!	!	!
1.D	43	1.D	De-	2.d\	non	1g	in	(>2b-\	De-
.	.	.	.	.	.	.	.	1a)	.
.	.	.	.	4d	ſpe-	.	.	.	.
!	!	!	!	!	!	!LO:SIC:v:t=custos g	!	!	!
.	.	.	.	2B-y\	-ra-	2f#X\	De-	.	.
=35-	=35-	=35-	=35-	=35-	=35-	=35-	=35-	=35-	=35-
!	!	!	!	!	!	!LO:LB:g=original	!	!	!
1.G	.	2GG/	-o	2G/	-bit	1g	-o	1.b-	-o
.	.	2.G\	non	2B-\	cor	.	.	.	.
.	.	.	.	2A/	noſ-	2r	.	.	.
!	!	!LO:SIC:v:t=custos F	!	!	!	!	!	!	!
.	.	4G\	ſpe-	.	.	.	.	.	.
!	!	!LO:LB:g=original	!	!	!	!	!	!	!
2F#X\	6	2F#X\	-ra-	2A/	-trum	1r	.	2r	.
2D\	.	2D\	-bit	2A/	non	.	.	2.dd\	non
!	!	!	!	!	!	!LO:TX:t=P:problem:brak pauzy 2r	!	!	!
2F#\	.	2F#\	cor	1B-	non	2ryy	.	.	.
.	.	.	.	.	.	.	.	4dd\	ſpe-
=36-	=36-	=36-	=36-	=36-	=36-	=36-	=36-	=36-	=36-
1G	-	2G\	noſ-	.	.	2r	.	2b-\	-ra-
.	.	2G\	-tru(m)	2d\	non	2.g\	non	2g/	-bit
!	!	!	!	!	!	!	!	!LO:SIC:v:t=custos a	!
2GG/	.	2GG/	non	1d	non	.	.	2b-\	cor
.	.	.	.	.	.	4g\	ſpe-	.	.
!LO:TX:t=P:problem:kreska pseudotaktowa	!	!	!	!	!	!	!	!LO:LB:g=original	!
1.C	#	1D	non	.	.	2f#X\	-ra-	2a\	noſ-
.	.	.	.	2r	.	2d\	-bit	2a\	-trum
*	*	*	*ij	*	*	*	*	*	*
!	!	!	!	!LO:LB:g=original	!	!	!	!	!
.	.	2D/	non	1r	.	2f#\	cor	2a\	non
=37-	=37-	=37-	=37-	=37-	=37-	=37-	=37-	=37-	=37-
1GG	.	1GG	non	.	.	2g\	nos-	2b-\	(n)o(n)
.	.	.	.	2r	.	2g\	-tru(m)	2r	.
*	*	*	*	*	*	*	*	*	*ij
2AA/	6	2AA/	non	2cny\	non	2fny\	non	2cc\	ni-
1.BB-y	.	1.BB-	non	1B-	non	1f	non	1dd	-si
*	*	*	*Xij	*	*	*	*	*	*Xij
.	.	.	.	.	.	.	.	.	.
.	.	.	.	2r	.	2r	.	2r	.
=38-	=38-	=38-	=38-	=38-	=38-	=38-	=38-	=38-	=38-
1.E-X	.	2E-X\	ni-	2B-\	ni-	2g\	ni-	2ee-X\	ni-
.	.	2E-\	-ſi	2B-\	-ſi	2g\	-ſi	2ee-\	-ſi
.	.	2E-\	in	2B-\	in	2g\	in	2ee-\	in
!LO:SIC:v:t=custos BB-	!	!LO:SIC:v:t=custos BB-	!	!	!	!LO:SIC:v:t=custos f	!	!	!
1.Fny	.	1.Fny	De-	(2B-\	De-	1.f	De-	1.cc	De-
.	.	.	.	1A)	.	.	.	.	.
=39||-	=39||-	=39||-	=39||-	=39||-	=39||-	=39||-	=39||-	=39||-	=39||-
*M2/1	*	*M2/1	*	*M2/1	*	*M2/1	*	*M2/1	*
*met(C)	*	*met(C)	*	*met(C)	*	*met(C)	*	*met(C)	*
!LO:PB:g=original	!	!LO:LB:g=original	!	!	!	!LO:LB:g=original	!	!	!
2BB-/	.	2BB-/	-o	2B-\	-o	4f\	-o	2dd\	-o
.	.	.	.	.	.	8f\	qui-	.	.
.	.	.	.	.	.	8f\	-a	.	.
2AA/	6\ #	2r	.	2r	.	4f#X\	ip-	2r	.
.	.	.	.	.	.	8f#\	-ſe	.	.
.	.	.	.	.	.	8f#\	e(st)	.	.
2GG/	.	00r	.	4r	.	8.g\	Do-	00r	.
.	.	.	.	.	.	16g\	-mi-	.	.
!	!	!	!	!LO:N:acc=#	!	!	!	!	!
.	.	.	.	8Bn\	qui-	4g\	-n(us)	.	.
.	.	.	.	8B\	-a	.	.	.	.
!LO:TX:t=P:problem:kreska pseudotaktowa	!	!	!	!	!	!	!	!	!
2GG/	7 3 #	.	.	4B\	ip-	8r	.	.	.
.	.	.	.	.	.	8d\	pro-	.	.
.	.	.	.	8B\	-ſe	8f#\	-te-	.	.
.	.	.	.	8B\	est	8e\	-ctor	.	.
=40-	=40-	=40-	=40-	=40-	=40-	=40-	=40-	=40-	=40-
2C/	.	.	.	8.c\	Do-	4e\	noſ-	.	.
!	!	!	!	!LO:SIC:v:t=custos c	!	!	!	!	!
.	.	.	.	16c\	-mi-	.	.	.	.
!	!	!	!	!LO:LB:g=original	!	!	!	!	!
.	.	.	.	8c\	-nus	4e\	-ter	.	.
.	.	.	.	8G-X/	pro-	.	.	.	.
2C/	.	.	.	4.B-y\	-tec-	8r	.	.	.
.	.	.	.	.	.	8e\	ad-	.	.
.	.	.	.	.	.	8e\	-ju-	.	.
!	!	!	!	!	!	!LO:SIC:v:t=custos f	!	!	!
.	.	.	.	8A/	-tor	8e\	-tor	.	.
!	!	!	!	!	!	!LO:LB:g=original	!	!	!
2F\	.	.	.	4A\	noſ-	4fny\	noſ-	.	.
.	.	.	.	8A\	-ter	8f\	-ter	.	.
.	.	.	.	8c\	&	8f\	&	.	.
4BB-/	.	.	.	4d\	ſa-	4f\	sa-	.	.
!LO:N:acc=#	!	!	!	!	!	!	!	!	!
4BBn/	.	.	.	4d\	-l(us)	4f\	-lus	.	.
=41-	=41-	=41-	=41-	=41-	=41-	=41-	=41-	=41-	=41-
2C/	.	.	.	2G-X/	noſ-	(>4.f\	noſ-	.	.
.	.	.	.	.	.	8e\)	.	.	.
2F\	.	.	.	8A/	-tra	4f\	-tra	.	.
.	.	.	.	8c\	ad-	.	.	.	.
.	.	.	.	8f\	-ju-	4r	.	.	.
.	.	.	.	8e-X\	-tor	.	.	.	.
2BB-y/	.	0r	.	4d\	noſ-	8r	.	00r	.
.	.	.	.	.	.	8f\	ad-	.	.
.	.	.	.	8d\	-ter	8b-\	-ju-	.	.
.	.	.	.	8d\	&	8a\	-tor	.	.
4.C/	.	.	.	4e-\	ſa-	4g\	noſ-	.	.
.	.	.	.	8e-\	-lus	8g\	-ter	.	.
!	!	!	!	!LO:SIC:v:t=custos d	!	!	!	!	!
8AA/	6	.	.	8f\	&	8a\	&	.	.
=42-	=42-	=42-	=42-	=42-	=42-	=42-	=42-	=42-	=42-
!	!	!	!	!LO:LB:g=original	!	!	!	!	!
4BB-/	.	.	.	4.d\	ſa-	4.f\	ſa-	.	.
4GG/	.	.	.	.	.	.	.	.	.
.	.	.	.	8d\	-lus	8e\	-l(us)	.	.
!LO:SIC:v:t=custos D	!	!	!	!	!	!	!	!	!
2AA/	43	.	.	4.d\	noſ-	2e\	noſ-	.	.
.	.	.	.	8c#X\	.	.	.	.	.
!LO:LB:g=original	!	!	!	!	!	!	!	!	!
!LO:TX:b:i:t=allegro	!	!	!	!	!	!	!	!	!
2D\	#	4r	.	4d\	-tra	4f#X\	-tra	.	.
.	.	8D/	qui	4r	.	4r	.	.	.
.	.	8D/	ſpe-	.	.	.	.	.	.
!	!	!	!	!	!	!LO:SIC:v:t=custos f	!	!	!
2Eny\	.	4Eny\	-ra-	2r	.	2r	.	.	.
.	.	8E\	-bit	.	.	.	.	.	.
.	.	8E\	in	.	.	.	.	.	.
=43-	=43-	=43-	=43-	=43-	=43-	=43-	=43-	=43-	=43-
!	!	!	!	!	!	!LO:LB:g=original	!	!	!
2F#X\	6	2F#X\	e-	4r	.	1r	.	.	.
.	.	.	.	8A/	qui	.	.	.	.
.	.	.	.	8A/	ſpe-	.	.	.	.
!LO:TX:t=P:problem:kreska pseudotaktowa	!	!	!	!LO:N:acc=#	!	!	!	!	!
2G\	#	4.G\	-o	4Bn\	-ra-	.	.	.	.
.	.	.	.	8B\	-bit	.	.	.	.
.	.	8G\	in	8B\	in	.	.	.	.
2E\	6 #	2E\	e-	2c#X\	e-	2r	.	0r	.
[>2D\	#	4D/	-o	4d\	-o	4r	.	.	.
*	*	*	*	*	*ij	*	*	*	*
.	.	8D/	qui	8d\	qui	8f#X\	qui	.	.
.	.	8D/	ſpe-	8d\	spe-	8f#\	ſpe-	.	.
=44-	=44-	=44-	=44-	=44-	=44-	=44-	=44-	=44-	=44-
4D\]	4 2	4D/	-ra-	4eny\	-ra-	4g#X\	-ra-	.	.
4C/	.	8C/	-bit	8e\	-bit	8a\	-bit	.	.
!	!	!LO:SIC:v:t=custos BB-	!	!LO:SIC:v:t=custos d	!	!	!	!	!
.	.	8C/	in	8e\	in	8a\	in	.	.
!LO:TX:t=P:problem:kreska pseudotaktowa	!	!	!	!	!	!	!	!	!
!LO:N:acc=#	!	!LO:N:acc=#	!	!LO:LB:g=original	!	!	!	!	!
2BBn/	76	2BBn/	e-	2d\	e-	4.a\	e-	.	.
.	.	.	.	.	.	8g#X\	-o	.	.
!LO:TX:t=P:problem:mixed beam	!	!	!	!	!	!	!	!	!
8AA/L	.	8AA/	-o	4c#X\	-o	4a\	non	4r	.
*	*	*	*	*	*Xij	*	*	*	*
8A\J	.	8A\	non	.	.	.	.	.	.
4Fny\	.	8Fny\	con-	4r	.	8r	.	8a\	qui
!	!	!	!	!	!	!	!	!LO:SIC:v:t=custos b-	!
.	.	8F\	-fun-	.	.	8a\	con-	8a\	ſpe-
!	!	!	!	!	!	!	!	!LO:LB:g=original	!
!	!	!	!	!	!	!	!	!LO:N:acc=#	!
4D\	6 #	8D\	-de-	2r	.	8fny\	-fun-	4bn\	-ra-
.	.	8D\	-tur	.	.	8f\	-de-	.	.
8G\L	.	8G\	in	.	.	8d\	-tur	8b\	-bit
!	!	!	!	!	!	!	!	!LO:TX:t=P:problem:kreska pseudotaktowa	!
8F\J	.	8F\	ae-	.	.	8d\	in	8b\	in
=45-	=45-	=45-	=45-	=45-	=45-	=45-	=45-	=45-	=45-
4E\	# 6	8E\L	-ter-	2r	.	8gny\	ae-	2cc#X\	e-
.	.	16F\L	.	.	.	8g\	-ter-	.	.
.	.	16G\JJ	.	.	.	.	.	.	.
4A\	#	8A\L	.	.	.	4e\	.	.	.
.	.	16G\L	.	.	.	.	.	.	.
.	.	16A\JJ	.	.	.	.	.	.	.
!LO:TX:t=P:problem:kreska pseudotaktowa	!	!	!	!	!	!	!	!	!
!LO:SIC:v:t=custos E	!	!	!	!	!	!LO:SIC:v:t=custos g	!	!	!
2D/	6 56	2D/	-num	4r	.	2f\	-num	8dd\	-o
.	.	.	.	.	.	.	.	8dd\	no(n)
.	.	.	.	8D/	qui	.	.	8b-y\	con-
!	!	!	!	!	!	!	!	!LO:TX:t=P:problem:kreska pseudotaktowa	!
.	.	.	.	8D/	ſpe-	.	.	8b-\	-fun-
!LO:LB:g=original	!	!	!	!	!	!LO:PB:g=original	!	!	!
2E\	6	1r	.	4E/	-ra-	8r	.	8g\	-de-
.	.	.	.	.	.	8g\	non	8g\	-tur
.	.	.	.	8E/	-bit	8e\	con-	8cc#\	in
.	.	.	.	8E/	in	8c\	-fun-	8b-\	ae-
2F#X\	6	.	.	2F#X/	e-	8d\	-de-	8a\L	-ter-
.	.	.	.	.	.	8d\	-tur	16b-\L	.
.	.	.	.	.	.	.	.	16cc#\JJ	.
.	.	.	.	.	.	4r	.	8dd\L	.
.	.	.	.	.	.	.	.	16cc#\L	.
!	!	!	!	!	!	!	!	!LO:TX:t=P:problem:kreska pseudotaktowa	!
.	.	.	.	.	.	.	.	16dd\JJ	.
=46-	=46-	=46-	=46-	=46-	=46-	=46-	=46-	=46-	=46-
!	!	!	!	!	!	!	!	!LO:N:acc=#	!
4G\	5	4r	.	2Gny/	-o	8r	.	4bn\	-num
*	*	*	*	*	*	*	*ij	*	*
.	.	.	.	.	.	8g\	non	.	.
4GG/	6	8GG/	qui	.	.	8e\	con-	8b\	qui
!	!	!	!	!	!	!	!	!LO:SIC:v:t=custos cc	!
.	.	8GG/	ſpe-	.	.	8e\	-fun-	8b\	ſpe-
!LO:TX:t=P:problem:kreska pseudotaktowa	!	!LO:SIC:v:t=custos AA	!	!	!	!	!	!LO:LB:g=original	!
2AA/	56	4AA/	-ra-	2r	.	8c\	-de-	4ccny\	-ra-
.	.	.	.	.	.	8c\	-tur	.	.
*	*	*	*	*	*	*	*Xij	*	*
!	!	!LO:LB:g=original	!	!	!	!	!	!	!
.	.	8AA/	-bit	.	.	8f\	in	8cc\	-bit
!	!	!	!	!	!	!	!	!LO:TX:t=P:problem:kreska pseudotaktowa	!
.	.	8AA/	in	.	.	8e\	ae-	8cc\	in
!	!	!LO:TX:t=P:problem:korekta	!	!	!	!	!	!	!
!LO:N:acc=#	!	!LO:N:acc=#	!	!	!	!	!	!	!
2BBn/	6	2BBn/	e-	2r	.	8d\L	-ter-	2dd\	e-
.	.	.	.	.	.	16e\L	.	.	.
.	.	.	.	.	.	16f\JJ	.	.	.
.	.	.	.	.	.	8g\L	.	.	.
.	.	.	.	.	.	16f\L	.	.	.
.	.	.	.	.	.	16g\JJ	.	.	.
2C/	56	4C/	-o	4r	.	4e\	-num	8eeny\	-o
.	.	.	.	.	.	.	.	8ee\	non
.	.	8C/	qui	8r	.	4r	.	8cc\	con-
!	!	!	!	!	!	!	!	!LO:TX:t=P:problem:kreska pseudotaktowa	!
.	.	8C/	ſpe-	8A/	non	.	.	8cc\	-fun-
=47-	=47-	=47-	=47-	=47-	=47-	=47-	=47-	=47-	=47-
2D\	56 #	4D\	-ra-	8Fny/	con-	1r	.	8a\	-de-
.	.	.	.	8F/	-fun-	.	.	8a\	-tur
!	!	!	!	!LO:N:acc=#	!	!	!	!	!
.	.	8D\	-bit	8Bn\	-de-	.	.	8dd\	in
!	!	!	!	!LO:SIC:v:t=custos G	!	!	!	!	!
.	.	8D\	in	8G\	-tur	.	.	8cc\	ae-
!	!	!	!	!LO:LB:g=original	!	!	!	!LO:N:acc=#	!
2E\	56 #	4E\	e-	8G/L	in	.	.	8bn\L	-ter-
.	.	.	.	16A/L	.	.	.	16cc\L	.
.	.	.	.	16B/JJ	.	.	.	16dd\JJ	.
.	.	8E\	-o	8cny\L	ae-	.	.	8ee\L	.
.	.	8E\	in	16B\L	.	.	.	16dd\L	.
!	!	!	!	!	!	!	!	!LO:TX:t=P:problem:kreska pseudotaktowa	!
.	.	.	.	16c\JJ	.	.	.	16ee\JJ	.
4.Fny\	56	4.F\	e-	8A\	-ter-	2r	.	8cc\	.
.	.	.	.	8A\	-num	.	.	8cc\	-num
.	.	.	.	8d\	in	.	.	8ff\	in
!	!	!	!	!	!	!	!	!LO:SIC:v:t=custos ee	!
8G\	.	8G\	.	8d\	ae-	.	.	8ee\	ae-
!LO:TX:t=P:problem:kreska pseudotaktowa	!	!	!	!	!	!	!	!LO:TX:t=P:problem:kreska pseudotaktowa	!
!	!	!	!	!	!	!	!	!LO:LB:g=original	!
2A\	43	2A\	.	4.d\	-ter-	4r	.	2ee\	-ter-
.	.	.	.	.	.	8r	.	.	.
.	.	.	.	8c#X\	.	8a\	no(n)	.	.
=48-	=48-	=48-	=48-	=48-	=48-	=48-	=48-	=48-	=48-
4D/	6	8D/	-o	4d\	-num	8f\	con-	8ff\	-num
!	!	!LO:SIC:v:t=custos BB-	!	!	!	!	!	!	!
.	.	8D/	non	.	.	8f\	-fun-	8r	.
!	!	!LO:LB:g=original	!	!	!	!	!	!	!
4BB-y/	.	8BB-y/	con-	8r	.	8d\	-de-	8f/	qui
!	!	!	!	!	!	!LO:SIC:v:t=custos a	!	!	!
.	.	8BB-/	-fun-	8d\	non	8d\	-tur	8f/	ſpe-
!	!	!	!	!	!	!LO:LB:g=original	!	!	!
4GG/	.	8GG/	-de-	8B-y\	con-	8r	.	4g/	-ra-
*	*	*	*	*	*	*	*ij	*	*
.	.	8GG/	-tur	8B-\	-fun-	8g\	non	.	.
4C/	.	8C/	in	8G/	-de-	8e\	con-	8g\	-bit
!	!	!	!	!	!	!	!	!LO:TX:t=P:problem:kreska pseudotaktowa	!
.	.	8BB-/	ae-	8G/	-tur	8e\	-fun-	8g\	in
4AA/	6 #	8AA/L	-ter-	4.c#y\	in	8f#X\	-de-	2a\	e-
.	.	16BB-/L	.	.	.	8f#\	-tur	.	.
*	*	*	*	*	*	*	*Xij	*	*
.	.	16C/JJ	.	.	.	.	.	.	.
4D/	7 3 #	8D/L	.	.	.	8f#\	in	.	.
.	.	16C/L	.	8c#\	ae-	8f#\	ae-	.	.
.	.	16D/JJ	.	.	.	.	.	.	.
4GG/	.	8GG/	-num	8B-\	-ter-	8g\	-ter-	4b-y\	-o
.	.	8GG/	in	8d\	-num	8g\	-num	.	.
!LO:SIC:v:t=custos AA	!	!	!	!	!	!	!	!LO:TX:t=P:problem:kreska pseudotaktowa	!
4AA/	6	8AA/	ae-	4r	.	8f#\	in	4a\	in
.	.	8AA/	-ter-	.	.	8e\	ae-	.	.
=49-	=49-	=49-	=49-	=49-	=49-	=49-	=49-	=49-	=49-
!LO:LB:g=original	!	!	!	!LO:LB:g=original	!	!	!	!	!
2BB-/	76	2BB-/	.	2r	.	16d\LL	-ter-	(>4.a\	e-
.	.	.	.	.	.	16c\	.	.	.
.	.	.	.	.	.	16d\	.	.	.
.	.	.	.	.	.	16e\JJ	.	.	.
.	.	.	.	.	.	4d\	.	.	.
.	.	.	.	.	.	.	.	8g\)	.
4AA/	6	2AA/	-num	4r	.	8c#X\	-num	4a\	-o
.	.	.	.	.	.	8a\	(n)o(n)	.	.
!	!	!	!	!	!	!	!	!LO:TX:t=P:problem:kreska pseudotaktowa	!
4A\	6	.	.	8A/	qui	8fny\	c(on)-	4r	.
.	.	.	.	8A/	ſpe-	8f\	-fun-	.	.
!LO:N:acc=#	!	!LO:PB:g=original	!	!LO:N:acc=#	!	!	!	!	!
2Bn\	6	1r	.	4Bn\	-ra-	8d\	-de-	1r	.
.	.	.	.	.	.	8d\	-tur	.	.
.	.	.	.	8B\	-bit	8g\	in	.	.
.	.	.	.	8B\	in	8f\	ae-	.	.
2c#X\	6	.	.	2c#X\	e-	8e\L	-ter-	.	.
.	.	.	.	.	.	16f\L	.	.	.
.	.	.	.	.	.	16g\JJ	.	.	.
.	.	.	.	.	.	8a\L	.	.	.
.	.	.	.	.	.	16g\L	.	.	.
.	.	.	.	.	.	16a\JJ	.	.	.
=50-	=50-	=50-	=50-	=50-	=50-	=50-	=50-	=50-	=50-
4d\	#	4r	.	2d\	-o	4f#X\	.	8r	.
.	.	.	.	.	.	.	.	8dd\	non
!	!	!	!	!	!	!LO:SIC:v:t=custos a	!	!	!
4D/	-6	8D\	qui	.	.	4f#\	-num	8b-\	con-
!	!	!	!	!	!	!	!	!LO:SIC:v:t=custos g	!
.	.	8D\	ſpe-	.	.	.	.	8b-\	-fun-
!LO:TX:t=P:problem:kreska pseudotaktowa	!	!	!	!	!	!LO:TX:t=P:problem:nieczytelna pauza	!	!	!
!	!	!	!	!	!	!LO:LB:g=original	!	!LO:LB:g=original	!
2E\	6	4E\	-ra-	4r	.	1r	.	8g\	-de-
.	.	.	.	.	.	.	.	8g\	-tur
*	*	*	*	*	*ij	*	*	*	*
.	.	8E\	-bit	8G/	qui	.	.	8cc\	in
!	!	!	!	!	!	!	!	!LO:TX:t=P:problem:kreska pseudotaktowa	!
.	.	8E\	in	8G/	spe-	.	.	8b-\	ae-
2F#X\	6	2F#X\	e-	4A/	-ra-	.	.	8a\L	-ter-
.	.	.	.	.	.	.	.	16b-\L	.
.	.	.	.	.	.	.	.	16cc\JJ	.
.	.	.	.	8A/	-bit	.	.	8dd\L	.
.	.	.	.	8A/	in	.	.	16cc\L	.
.	.	.	.	.	.	.	.	16dd\JJ	.
!LO:TX:t=P:problem:mixed beam	!	!	!	!	!	!	!	!	!
8G\L	.	8G\	-o	4B-y\	e-	4r	.	8b-\	.
8GG/	.	8GG/	in	.	.	.	.	8b-\	-nu(m)
8AA/	6	8AA/L	e-	8cny\	-o	8a\	qui	8a\	in
*	*	*	*	*	*Xij	*	*	*	*
!	!	!	!	!	!	!	!	!LO:TX:t=P:problem:kreska pseudotaktowa	!
8BB-/J	6	8BB-/J	.	8d\	in	8a\	ſpe-	8g\	ae-
=51-	=51-	=51-	=51-	=51-	=51-	=51-	=51-	=51-	=51-
2C/	43	2C/	.	2c\	e-	4g\	-ra-	2g\	-ter-
.	.	.	.	.	.	8fny\	-bit	.	.
.	.	.	.	.	.	8f\	in	.	.
!LO:TX:t=P:problem:kreska pseudotaktowa	!	!	!	!	!	!	!	!	!
2Fny\	.	4FFny/	-o	4c\	-o	4.f\	e-	8a\	-num
.	.	.	.	.	.	.	.	8cc\	non
.	.	8r	.	4r	.	.	.	8a\	con-
!	!	!	!	!	!	!	!	!LO:TX:t=P:problem:kreska pseudotaktowa	!
.	.	8Fny\	non	.	.	8e\	.	8a\	-fun-
!	!	!	!	!LO:LB:g=original	!	!	!	!	!
4D/	.	8D/	con-	00r	.	4f\	-o	8f/	-de-
!	!	!LO:SIC:v:t=custos BB-	!	!	!	!	!	!	!
.	.	8D/	-fun-	.	.	.	.	8f/	-tur
!	!	!LO:LB:g=original	!	!	!	!	!	!	!
4BB-/	5	8BB-/	-de-	.	.	4r	.	8d/	non
!	!	!	!	!	!	!	!	!LO:SIC:v:t=custos b-	!
.	.	8BB-/	-tur	.	.	.	.	8dd\	non
!	!	!	!	!	!	!	!	!LO:PB:g=original	!
4BB-/	6	8BB-/	qui	.	.	2r	.	8b-\	con-
.	.	8BB-/	ſpe-	.	.	.	.	8b-\	-fun-
!LO:SIC:v:t=custos C	!	!	!	!	!	!	!	!	!
4C/	.	4C/	-ra-	.	.	.	.	8g\	-de-
!	!	!	!	!	!	!	!	!LO:TX:t=P:problem:kreska pseudotaktowa	!
.	.	.	.	.	.	.	.	8g\	-tur
=52-	=52-	=52-	=52-	=52-	=52-	=52-	=52-	=52-	=52-
!LO:LB:g=original	!	!	!	!	!	!	!	!	!
4C\	56	8C/	-bit	.	.	8r	.	8cc\	in
.	.	8C/	in	.	.	8g\	non	8b-\	ae-
4.D\	56	4.D\	De-	.	.	8e\	con-	8a\	-ter-
.	.	.	.	.	.	8e\	-fun-	8a\	-num
.	.	.	.	.	.	8a\	-de-	8dd\	in
8E-X\	.	8E-X\	.	.	.	8g\	-tur	8cc\	ae-
!LO:TX:t=P:problem:kreska pseudotaktowa	!	!	!	!	!	!	!	!LO:TX:t=P:problem:kreska pseudotaktowa	!
4F\	43	4F\	.	.	.	8f\	in	4cc\	-ter-
.	.	.	.	.	.	8f\	ae-	.	.
4B-y\	.	8BB-/	-o	.	.	4.b-\	-ter-	4dd\	-nu(m)
.	.	8B-\	non	.	.	.	.	.	.
4G\	.	8G\	con-	.	.	.	.	8dd\	q(ui)
.	.	8G\	-fun-	.	.	8a\	-num	8dd\	ſpe-
4E-\	6 -5	8E-\	-de-	.	.	4b-\	q(ui)	4cc\	-ra-
.	.	8C/	-tur	.	.	.	.	.	.
4F\	.	8F\	in	.	.	8b-\	ſpe-	8cc\	-bit
!	!	!	!	!	!	!	!	!LO:TX:t=P:problem:kreska pseudotaktowa	!
.	.	8E-X\	ae-	.	.	8b-\	-ra-	8cc\	in
=53-	=53-	=53-	=53-	=53-	=53-	=53-	=53-	=53-	=53-
!	!	!LO:LB:g=original	!	!	!	!	!	!	!
4D\	65	8D\	-ter-	.	.	4b-\	-bit	4b-\	e-
.	.	8D\	-num	.	.	.	.	.	.
4E-X\	.	8E-X\	in	.	.	8a\	in	8b-\	-o
!	!	!	!	!	!	!LO:SIC:v:t=custos a	!	!LO:SIC:v:t=custos a	!
.	.	8D\	ae-	.	.	8a\	.	8b-\	in
!	!	!	!	!	!	!	!	!LO:TX:t=P:problem:kreska pseudotaktowa	!
!	!	!	!	!	!	!LO:LB:g=original	!	!LO:LB:g=original	!
4C\	6 5	4C/	-ter-	.	.	4a\	e-	2a\	e-
!LO:TX:t=P:problem:kreska pseudotaktowa	!	!	!	!	!	!	!	!	!
4D\	43	4D/	.	.	.	8g\	-o	.	.
.	.	.	.	.	.	8g\	in	.	.
!	!	!	!	!	!	!	!	!LO:N:acc=#	!
2G\	56	2GG/	-num	4r	.	4.g\	e-	4bn\	-o
.	.	.	.	8G/	qui	.	.	4r	.
!	!	!	!	!	!	!LO:TX:a:t=P:problem:# above	!	!	!
.	.	.	.	8G/	ſpe-	8f#X\	-o	.	.
2A\	6 #	2r	.	4A/	-ra-	8g\	non	8r	.
.	.	.	.	.	.	8g\	con-	8cc\	non
.	.	.	.	8A/	-bit	8e\	-fun-	8a\	con-
!	!	!	!	!	!	!	!	!LO:TX:t=P:problem:kreska pseudotaktowa	!
.	.	.	.	8A/	in	8e\	-de-	8a\	-fun-
=54-	=54-	=54-	=54-	=54-	=54-	=54-	=54-	=54-	=54-
!	!	!	!	!LO:N:acc=#	!	!	!	!LO:TX:t=P:problem:mixed beam	!
2B-\	6	0r	.	2Bn\	e-	4cny/	-tur	8d/L	-de-
.	.	.	.	.	.	.	.	16dd\L	.
.	.	.	.	.	.	.	.	16cc\JJ	.
!	!	!	!	!	!	!	!	!LO:N:acc=#	!
.	.	.	.	.	.	4c/	.	16bn\LL	.
.	.	.	.	.	.	.	.	16cc\	.
.	.	.	.	.	.	.	.	16a\	.
.	.	.	.	.	.	.	.	16b\JJ	.
4.cny\	.	.	.	4c\	-o	4r	.	8g/	.
.	.	.	.	.	.	.	.	8g/	-tur
.	.	.	.	8c\L	in	8d\	q(ui)	8g/	in
!	!	!	!	!LO:N:acc=#	!	!	!	!LO:TX:t=P:problem:kreska pseudotaktowa	!
!	!	!	!	!LO:TX:a:t=P:problem:# above	!	!	!	!	!
8B-\	#	.	.	8Bn\J	.	8d\	ſpe-	8g/	ae-
2A\	76	.	.	2A/	e-	4e\	-ra-	2a\	-ter-
.	.	.	.	.	.	8e\	-bit	.	.
.	.	.	.	.	.	8e\	in	.	.
!LO:SIC:v:t=custos G	!	!	!	!	!	!LO:TX:a:t=P:problem:# above	!	!LO:N:acc=#	!
2G\	#	.	.	4G/	-o	2f#X\	e-	4bn\	-num
.	.	.	.	8G/	qui	.	.	8b\	qui
!	!	!	!	!	!	!	!	!LO:TX:t=P:problem:kreska pseudotaktowa	!
!	!	!	!	!	!	!	!	!LO:SIC:v:t=custos cc	!
.	.	.	.	8G/	ſpe-	.	.	8b\	ſpe-
=55-	=55-	=55-	=55-	=55-	=55-	=55-	=55-	=55-	=55-
!LO:LB:g=original	!	!	!	!	!	!	!	!LO:LB:g=original	!
4G\	4 #2	1r	.	4G/	-ra-	4g\	-o	4cc#X\	-ra-
*	*	*	*	*	*	*	*ij	*	*
4F\	.	.	.	8F/	-bit	8g\	qui	8dd\	-bit
.	.	.	.	8F/	in	8g\	spe-	8dd\	in
!LO:TX:t=P:problem:kreska pseudotaktowa	!	!	!	!	!	!	!	!	!
2Eny\	76	.	.	2E/	e-	4a\	-ra-	4.dd\	e-
.	.	.	.	.	.	8a\	-bit	.	.
!	!	!	!	!	!	!	!	!LO:TX:t=P:problem:kreska pseudotaktowa	!
.	.	.	.	.	.	8a\	in	8cc#X\	.
4D/	.	8r	.	4D/	-o	2g\	e-	8dd\	-o
.	.	8D/	non	.	.	.	.	8ff\	no(n)
4BB-/	.	8BB-/	con-	4r	.	.	.	8dd\	con-
.	.	8BB-/	-fun-	.	.	.	.	8dd\	-fun-
2GG/	56	8GG/	-de-	2r	.	4fny\	-o	4b-y\	-de-
*	*	*	*	*	*	*	*Xij	*	*
.	.	8GG/	-tur	.	.	.	.	.	.
!	!	!	!	!	!	!	!	!LO:TX:t=P:problem:kreska pseudotaktowa	!
.	.	8GG/	in	.	.	4r	.	4b-\	-tur
.	.	8GG/	ae-	.	.	.	.	.	.
=56-	=56-	=56-	=56-	=56-	=56-	=56-	=56-	=56-	=56-
!	!	!	!	!LO:PB:g=original	!	!	!	!	!
2AA/	.	4AA/	-ter-	2r	.	8r	.	8r	.
*	*	*	*	*	*	*	*	*	*ij
.	.	.	.	.	.	8g\	non	8cc#\	non
.	.	4AA/	-num	.	.	8e\	con-	8a\	con-
.	.	.	.	.	.	8e\	-fun-	8a\	-fun-
!LO:TX:t=P:problem:kreska pseudotaktowa	!	!	!	!	!	!	!	!	!
!	!	!LO:LB:g=original	!	!	!	!LO:LB:g=original	!	!	!
2BB-/	.	8r	.	8r	.	8c/	-de-	8f/	-de-
*	*	*	*ij	*	*	*	*	*	*
.	.	8BB-/	non	8d\	non	8c/	-tur	8f/	-tur
*	*	*	*	*	*	*	*	*	*Xij
.	.	8BB-/	con-	8B-y\	con-	8c/	in	8ff\	in
!	!	!	!	!	!	!	!	!LO:TX:t=P:problem:kreska pseudotaktowa	!
!	!	!	!	!	!	!	!	!LO:SIC:v:t=custos cc	!
.	.	8BB-/	-fun-	8B-\	-fun-	8c/	ae-	8dd\	ae-
!	!	!	!	!	!	!	!	!LO:LB:g=original	!
4C/	.	8C/	-de-	8G/	-de-	8d\	-ter-	8ccny\	-ter-
.	.	8C/	-tur	8G/	-tur	8d\	-num	8cc\	-nu(m)
8AA/L	.	8AA/	in	8A/	in	8d\	in	8cc\	in
8BB-/J	.	8BB-/	ae-	8G/	ae-	8d\	ae-	8dd\	ae-
!	!	!	!	!	!	!	!	!LO:TX:t=P:problem:kreska pseudotaktowa	!
2C/	43	2C/	-ter-	2G/	-ter-	4e\	-ter-	2cc\	-ter-
.	.	.	.	.	.	2f\	-num	.	.
=57-	=57-	=57-	=57-	=57-	=57-	=57-	=57-	=57-	=57-
2FFny/	.	4FF/	-num	4A/	-num	.	.	8cc\	-num
*	*	*	*Xij	*	*	*	*	*	*
.	.	.	.	.	.	.	.	8cc\	no(n)
.	.	4r	.	4r	.	4e\	no(n)	8a\	con-
.	.	.	.	.	.	.	.	8a\	-fun-
!LO:TX:t=P:problem:kreska pseudotaktowa	!	!	!	!	!	!	!	!	!
2BB-/	.	2r	.	2r	.	8f\	con-	8f/	-de-
.	.	.	.	.	.	8a\	-fun-	8f/	-tur
.	.	.	.	.	.	8f\	-de-	8b-\	in
!	!	!	!	!	!	!	!	!LO:TX:t=P:problem:kreska pseudotaktowa	!
.	.	.	.	.	.	8f\	-tur	8a\	ae-
4C/	.	1r	.	0r	.	8d\	in	8g\	-ter-
.	.	.	.	.	.	8d\	ae-	8g\	-num
4FF/	.	.	.	.	.	8g\	-ter-	8a\	in
.	.	.	.	.	.	8f\	-num	(<16g/LL	ae-
!	!	!	!	!	!	!	!	!LO:SIC:v:t=custos e	!
.	.	.	.	.	.	.	.	16f/JJ)	.
!	!	!	!	!	!	!	!	!LO:LB:g=original	!
4GG/	6 5	.	.	.	.	8e\	in	16e/LL	-ter-
.	.	.	.	.	.	.	.	16d/	.
.	.	.	.	.	.	8e\	ae-	16e/	.
.	.	.	.	.	.	.	.	16f/JJ	.
!	!	!	!	!	!	!	!	!LO:TX:t=P:problem:kreska pseudotaktowa	!
4AA/	43	.	.	.	.	8f\	-ter-	4e/	.
.	.	.	.	.	.	8d\	-num	.	.
=58-	=58-	=58-	=58-	=58-	=58-	=58-	=58-	=58-	=58-
2D\	.	4r	.	.	.	4.d\	ae-	8f/	-num
.	.	.	.	.	.	.	.	8dd\	(n)o(n)
.	.	8D\	qui	.	.	.	.	8b-\	con-
!	!	!	!	!	!	!LO:TX:a:t=P:problem:# above	!	!	!
.	.	8D\	ſpe-	.	.	8c#X\	-ter-	8b-\	-fun-
!LO:SIC:v:t=custos F	!	!	!	!	!	!	!	!	!
2E\	6	4Eny\	-ra-	.	.	4d\	-num	4g/	-de-
!	!	!	!	!	!	!LO:LB:g=original	!	!LO:TX:t=P:problem:kreska pseudotaktowa	!
.	.	8E\	-bit	.	.	4r	.	4g/	-tur
.	.	8E\	in	.	.	.	.	.	.
!LO:LB:g=original	!	!LO:SIC:v:t=custos G	!	!	!	!	!	!	!
2F#X\	6	2F#X\	e-	4r	.	8r	.	0r	.
*	*	*	*	*	*	*	*ij	*	*
.	.	.	.	.	.	8e\	non	.	.
.	.	.	.	8A/	qui	8cny/	con-	.	.
.	.	.	.	8A/	ſpe-	8c/	-fun-	.	.
!	!	!LO:LB:g=original	!	!LO:N:acc=#	!	!	!	!	!
2G\	#	4.G\	-o	4Bn\	-ra-	8A/	-de-	.	.
.	.	.	.	.	.	8A/	-tur	.	.
.	.	.	.	8B\	-bit	8a\	in	.	.
.	.	8G\	in	8B\	in	8a\	ae-	.	.
=59-	=59-	=59-	=59-	=59-	=59-	=59-	=59-	=59-	=59-
!	!	!	!	!LO:SIC:v:t=custos d	!	!	!	!	!
2E\	#6	2E\	e-	2c#X\	e-	8d\	-ter-	.	.
.	.	.	.	.	.	8d\	-num	.	.
*	*	*	*	*	*	*	*Xij	*	*
.	.	.	.	.	.	8g\	in	.	.
.	.	.	.	.	.	8g\	ae-	.	.
!LO:TX:t=P:problem:kreska pseudotaktowa	!	!	!	!	!	!	!	!	!
!	!	!	!	!LO:LB:g=original	!	!	!	!	!
2D\	#	4D/	-o	4d\	-o	2g\	-ter-	.	.
.	.	8D/	qui	8d\	qui	.	.	.	.
.	.	8D/	ſpe-	8d\	ſpe-	.	.	.	.
4D/	4 #2	4D/	-ra-	4e\	-ra-	4f#X\	-num	1r	.
!	!	!	!	!	!	!LO:TX:a:t=P:problem:# above	!	!	!
4C/	.	8C/	-bit	8e\	-bit	8f#X\	qui	.	.
.	.	8C/	in	8e\	in	8f#\	ſpe-	.	.
!LO:N:acc=#	!	!LO:N:acc=#	!	!	!	!	!	!	!
2BBn/	76	2BBn/	e-	2d\	e-	4g#X\	-ra-	.	.
.	.	.	.	.	.	8a\	-bit	.	.
.	.	.	.	.	.	8a\	in	.	.
=60-	=60-	=60-	=60-	=60-	=60-	=60-	=60-	=60-	=60-
!LO:TX:t=P:problem:mixed beam	!	!	!	!	!	!	!	!	!
8AA/L	.	8AA/	-o	4c#X\	-o	4.a\	e-	4r	.
8A\J	.	8A\	non	.	.	.	.	.	.
4Fny\	.	8Fny\	con-	4r	.	.	.	8a\	qui
!	!	!	!	!	!	!LO:TX:a:t=P:problem:# above	!	!	!
.	.	8F\	-fun-	.	.	8g#X\	.	8a\	ſpe-
!	!	!	!	!	!	!	!	!LO:N:acc=#	!
4D\	.	8D\	-de-	2r	.	4a\	-o	4bn\	-ra-
.	.	8D\	-tur	.	.	.	.	.	.
8G\L	.	8G\	in	.	.	8r	.	8b\	-bit
!LO:TX:t=P:problem:kreska pseudotaktowa	!	!LO:SIC:v:t=custos E	!	!	!	!	!	!LO:TX:t=P:problem:kreska pseudotaktowa	!
8F\J	.	8F\	ae-	.	.	8a\	non	8b\	in
!	!	!LO:LB:g=original	!	!	!	!	!	!	!
4E\	#6	8E\L	-ter-	2r	.	8fny\	con-	2cc#X\	e-
!	!	!	!	!	!	!LO:SIC:v:t=custos d	!	!	!
.	.	16F\L	.	.	.	8f\	-fun-	.	.
.	.	16G\JJ	.	.	.	.	.	.	.
!	!	!	!	!	!	!LO:LB:g=original	!	!	!
4A\	#	8A\L	.	.	.	8d\	-de-	.	.
.	.	16G\L	.	.	.	8d\	-tur	.	.
.	.	16A\JJ	.	.	.	.	.	.	.
2D/	56 -	2D/	-num	4r	.	8gny\	in	8dd\	-o
!	!	!	!	!	!	!	!	!LO:SIC:v:t=custos b-	!
.	.	.	.	.	.	8g\	ae-	8dd\	non
*	*	*	*	*	*ij	*	*	*	*
!	!	!	!	!	!	!	!	!LO:LB:g=original	!
.	.	.	.	8D/	qui	4e\	-ter-	8b\	con-
!	!	!	!	!LO:TX:t=P:problem:kreska pseudotaktowa	!	!	!	!LO:TX:t=P:problem:kreska pseudotaktowa	!
.	.	.	.	8D/	spe-	.	.	8b\	-fun-
=61-	=61-	=61-	=61-	=61-	=61-	=61-	=61-	=61-	=61-
*2\right	*	*	*	*	*	*	*	*	*
2E\	6	1r	.	4E/	-ra-	2f\	-nu(m)	8g/	-de-
.	.	.	.	.	.	.	.	8g/	-tur
.	.	.	.	8E/	-bit	.	.	8ccny\	in
.	.	.	.	8E/	in	.	.	8b-y\	ae-
*2\left	*	*	*	*	*	*	*	*	*
!LO:TX:t=P:problem:kreska pseudotaktowa	!	!	!	!	!	!	!	!	!
2F#X\	6	.	.	2F#X/	e-	8r	.	8a\L	-ter-
.	.	.	.	.	.	8g\	(n)o(n)	16b-\L	.
.	.	.	.	.	.	.	.	16cc\JJ	.
.	.	.	.	.	.	8e\	con-	8dd\L	.
.	.	.	.	.	.	8d\	-fun-	16cc\L	.
!	!	!	!	!	!	!	!	!LO:TX:t=P:problem:kreska pseudotaktowa	!
.	.	.	.	.	.	.	.	16dd\JJ	.
!	!	!	!	!	!	!	!	!LO:N:acc=#	!
4G\	5	4r	.	2G/	-o	8d\	-de-	4bn\	-num
*	*	*	*	*	*Xij	*	*	*	*
.	.	.	.	.	.	8d\	-tur	.	.
4GG/	6	8GG/	qui	.	.	4r	.	8b\	qui
.	.	8GG/	ſpe-	.	.	.	.	8b\	ſpe-
!LO:SIC:v:t=custos BB-	!	!	!	!	!	!	!	!	!
2AA/	56	4AA/	-ra-	2r	.	8r	.	4cc\	-ra-
*	*	*	*	*	*	*	*ij	*	*
.	.	.	.	.	.	8g\	non	.	.
.	.	8AA/	-bit	.	.	8e\	con-	8cc\	-bit
!	!	!	!	!	!	!	!	!LO:TX:t=P:problem:kreska pseudotaktowa	!
.	.	8AA/	in	.	.	8e\	-fun-	8cc\	in
=62-	=62-	=62-	=62-	=62-	=62-	=62-	=62-	=62-	=62-
!LO:LB:g=original	!	!	!	!	!	!	!	!	!
!LO:N:acc=#	!	!LO:N:acc=#	!	!LO:LB:g=original	!	!	!	!	!
2BBn/	6	2BBn/	e-	2r	.	8c/	-de-	2dd\	e-
.	.	.	.	.	.	8c/	-tur	.	.
*	*	*	*	*	*	*	*Xij	*	*
.	.	.	.	.	.	8f\	in	.	.
.	.	.	.	.	.	8e\	ae-	.	.
2C/	56	4C/	-o	4r	.	8d\L	-ter-	8ee\	-o
.	.	.	.	.	.	16e\L	.	8ee\	non
.	.	.	.	.	.	16f\JJ	.	.	.
.	.	8C/	qui	8r	.	8g\L	.	8cc\	con-
!	!	!	!	!	!	!	!	!LO:SIC:v:t=custos a	!
.	.	8C/	ſpe-	8A/	non	16f\L	.	8cc\	-fun-
.	.	.	.	.	.	16g\JJ	.	.	.
!	!	!	!	!	!	!	!	!LO:LB:g=original	!
2D\	56 #	4D\	-ra-	8F#X/	con-	4e\	-num	8a\	-de-
.	.	.	.	8F#/	-fun-	.	.	8a\	-tur
!	!	!	!	!LO:N:acc=#	!	!	!	!	!
.	.	8D\	-bit	8Bn\	-de-	4r	.	8dd\	in
.	.	8D\	in	8A\	-tur	.	.	8cc\	ae-
!	!	!	!	!	!	!LO:SIC:v:t=custos a	!	!LO:N:acc=#	!
2E\	5:6 #:-	4E\	e-	8G/L	in	2r	.	8bn\L	-ter-
.	.	.	.	(16A/L	.	.	.	16cc\L	.
.	.	.	.	16B/JJ)	.	.	.	16dd\JJ	.
.	.	8E\	-o	8cny\L	ae-	.	.	8ee\L	.
!	!	!LO:SIC:v:t=custos F	!	!	!	!	!	!	!
.	.	8E\	in	16B\L	.	.	.	16dd\L	.
!	!	!	!	!	!	!	!	!LO:TX:t=P:problem:kreska pseudotaktowa	!
.	.	.	.	16c\JJ	.	.	.	16ee\JJ	.
=63-	=63-	=63-	=63-	=63-	=63-	=63-	=63-	=63-	=63-
!	!	!LO:LB:g=original	!	!	!	!LO:LB:g=original	!	!	!
4.Fny\	56	4.F\	e-	8A\	-ter-	2r	.	8cc\	-num
.	.	.	.	8A\	-num	.	.	8cc\	in
.	.	.	.	8d\	in	.	.	8ff\	ae-
8G\	.	8G\	.	8d\	ae-	.	.	8ee\	-ter-
2A\	43	2A\	-o	4.d\	-ter-	4r	.	2ee\	-num
.	.	.	.	.	.	8r	.	.	.
.	.	.	.	8c#X\	-num	8a\	non	.	.
4D/	-	8D/	non	4d\	.	8f\	con-	4ff\	in
.	.	8D/	con-	.	.	8f\	-fun-	.	.
4BB-y/	.	8BB-y/	-fun-	8r	.	8d\	-de-	8f/	ae-
!	!	!	!	!LO:SIC:v:t=custos B-	!	!	!	!	!
.	.	8BB-/	-de-	8d\	non	8d\	-tur	8f/	-ter-
4GG/	.	8GG/	-tur	8B-y\	con-	8r	.	4.g/	-num
*	*	*	*	*	*	*	*ij	*	*
.	.	8GG/	in	8B-\	-fun-	8g\	non	.	.
4C/	.	8C/	ae-	8G/	-de-	8e\	con-	.	.
*	*	*	*	*	*	*	*	*	*ij
.	.	8BB-/	-ter-	8G/	-tur	8e\	-fun-	8g/	in
=64-	=64-	=64-	=64-	=64-	=64-	=64-	=64-	=64-	=64-
4AA/	# 6	8AA/L	.	4.cny\	in	8f#X\	-de-	4.a\	ae-
.	.	16BB-/L	.	.	.	8f#\	-tur	.	.
*	*	*	*	*	*	*	*Xij	*	*
.	.	16C/JJ	.	.	.	.	.	.	.
4D/	7 #3	8D/L	.	.	.	8f#\	in	.	.
!	!	!	!	!	!	!	!	!LO:SIC:v:t=custos b-	!
.	.	16C/L	.	8c\	ae-	8f#\	ae-	8a\	-ter-
.	.	16D/JJ	.	.	.	.	.	.	.
!	!	!	!	!	!	!	!	!LO:LB:g=original	!
4GG/	.	4GG/	-num	8B-\	-ter-	8g\	-ter-	8b-y\	-num
*	*	*	*	*	*	*	*	*	*Xij
.	.	.	.	8d\	-nu(m)	8g\	-num	8b-\	.
*	*	*	*	*	*	*	*ij	*	*
4FF#X/	6	8FF#X/	in	8d\	in	8a\	in	8a\	in
!	!	!	!	!	!	!	!	!LO:TX:t=P:problem:kreska pseudotaktowa	!
.	.	8FF#/	ae-	8d\	ae-	8a\	ae-	8a\	ae-
1GG	.	1GG	-ter-	1d	-ter-	1g	-ter-	1b-	-ter-
=65-	=65-	=65-	=65-	=65-	=65-	=65-	=65-	=65-	=65-
0D;;	.	0D	-num	0d	-num	0f#X	-num	0a	-num.
*	*	*	*	*	*	*	*Xij	*	*
=-	=-	=-	=-	=-	=-	=-	=-	=-	=-
*-	*-	*-	*-	*-	*-	*-	*-	*-	*-
!!!system-decoration: [(s1,s2,s3,s4)][(s5)]
!!!RDF**kern: < = below
!!!RDF**kern: > = above
!!!ENC: Andrzej Gręziak
!!!END: 2021-01-28
!!!ENC: Marta Chmielewska
!!!END: 2022-03-01
!!!YEC: Copyright 2022 Narodowy Instytut Fryderyka Chopina (https://polishscores.org)
!!!YEM: License CC-BY-4.0 (https://creativecommons.org/licenses/by/4.0)
